X:168
T:John Stenson's No. 1
Z: id:dc-reel-155
M:C
L:1/8
K:D Major
e|fBBA Bcde|fBBc d3e|fBBA Bcde|[1 faaf efd:|[2 faaf eAB|]!
c|dAfA aAfA|abaf edBc|dAfA aAfA|abaf e3:|!

